web/assets/img/functions/520_29.svg

<svg id="vector" xmlns="http://www.w3.org/2000/svg" width="512" height="512" viewBox="0 0 512 512">
    <path fill="#00D151"
          d="M372.42,511C369.77,511 367.22,509.95 365.35,508.07C363.47,506.2 362.42,503.65 362.42,501V429H86C83.35,429 80.8,427.95 78.93,426.07C77.05,424.2 76,421.65 76,419V324C76,321.35 77.05,318.8 78.93,316.93C80.8,315.05 83.35,314 86,314H362.42V241C362.42,239.02 363.01,237.09 364.11,235.44C365.21,233.8 366.77,232.52 368.6,231.76C370.43,231 372.44,230.81 374.38,231.2C376.32,231.58 378.1,232.54 379.5,233.94L509.08,364C510.95,365.87 512,368.41 512,371.06C512,373.71 510.95,376.24 509.08,378.12L379.5,508.1C377.62,509.97 375.07,511.01 372.42,511ZM96,409H372.42C375.07,409 377.62,410.05 379.49,411.93C381.37,413.8 382.42,416.35 382.42,419V476.84L487.88,371L382.42,265.2V324C382.42,326.65 381.37,329.2 379.49,331.07C377.62,332.95 375.07,334 372.42,334H96V409Z"
          id="path_0"/>
    <path fill="#000000"
          d="M139.58,281C138.26,281 136.96,280.74 135.75,280.23C134.53,279.73 133.43,278.99 132.5,278.06L2.92,148C1.05,146.13 0,143.59 0,140.94C0,138.29 1.05,135.75 2.92,133.88L132.5,3.9C133.9,2.5 135.68,1.54 137.63,1.15C139.57,0.77 141.59,0.97 143.42,1.73C145.25,2.49 146.81,3.78 147.91,5.43C149.01,7.08 149.59,9.02 149.58,11V83H426C428.65,83 431.2,84.05 433.07,85.93C434.95,87.8 436,90.35 436,93V188C436,190.65 434.95,193.2 433.07,195.07C431.2,196.95 428.65,198 426,198H149.58V271C149.58,273.65 148.53,276.2 146.65,278.07C144.78,279.95 142.23,281 139.58,281ZM24.12,141L129.58,246.8V188C129.58,185.35 130.63,182.8 132.51,180.93C134.38,179.05 136.93,178 139.58,178H416V103H139.58C136.93,103 134.38,101.95 132.51,100.07C130.63,98.2 129.58,95.65 129.58,93V35.16L24.12,141Z"
          id="path_1"/>
</svg>

<?xml version="1.0" encoding="utf-8"?>
<!-- Generator: Adobe Illustrator 28.2.0, SVG Export Plug-In . SVG Version: 6.00 Build 0)  -->
<svg version="1.1" id="vector" xmlns="http://www.w3.org/2000/svg" xmlns:xlink="http://www.w3.org/1999/xlink" x="0px" y="0px"
	 viewBox="0 0 512 512" style="enable-background:new 0 0 512 512;" xml:space="preserve">
<style type="text/css">
	.st0{fill:#33B0DF;}
</style>
<path id="path_0" class="st0" d="M372.4,511c-2.7,0-5.2-1-7.1-2.9c-1.9-1.9-2.9-4.4-2.9-7.1v-72H86c-2.7,0-5.2-1-7.1-2.9
	c-1.9-1.9-2.9-4.4-2.9-7.1v-95c0-2.6,1.1-5.2,2.9-7.1c1.9-1.9,4.4-2.9,7.1-2.9h276.4v-73c0-2,0.6-3.9,1.7-5.6
	c1.1-1.6,2.7-2.9,4.5-3.7c1.8-0.8,3.8-0.9,5.8-0.6c1.9,0.4,3.7,1.3,5.1,2.7L509.1,364c1.9,1.9,2.9,4.4,2.9,7.1s-1,5.2-2.9,7.1
	l-129.6,130C377.6,510,375.1,511,372.4,511z M96,409h276.4c2.6,0,5.2,1,7.1,2.9c1.9,1.9,2.9,4.4,2.9,7.1v57.8L487.9,371L382.4,265.2
	V324c0,2.6-1.1,5.2-2.9,7.1c-1.9,1.9-4.4,2.9-7.1,2.9H96V409z"/>
<path id="path_1" d="M139.6,281c-1.3,0-2.6-0.3-3.8-0.8c-1.2-0.5-2.3-1.2-3.2-2.2L2.9,148C1,146.1,0,143.6,0,140.9
	c0-2.7,1-5.2,2.9-7.1l129.6-130c1.4-1.4,3.2-2.4,5.1-2.8c1.9-0.4,4-0.2,5.8,0.6s3.4,2,4.5,3.7c1.1,1.7,1.7,3.6,1.7,5.6v72H426
	c2.6,0,5.2,1.1,7.1,2.9c1.9,1.9,2.9,4.4,2.9,7.1v95c0,2.6-1,5.2-2.9,7.1c-1.9,1.9-4.4,2.9-7.1,2.9H149.6v73c0,2.6-1.1,5.2-2.9,7.1
	C144.8,280,142.2,281,139.6,281z M24.1,141l105.5,105.8V188c0-2.6,1.1-5.2,2.9-7.1c1.9-1.9,4.4-2.9,7.1-2.9H416v-75H139.6
	c-2.7,0-5.2-1.1-7.1-2.9c-1.9-1.9-2.9-4.4-2.9-7.1V35.2L24.1,141z"/>
</svg>
